src/icons/svg/marketing.svg

<?xml version="1.0" standalone="no"?><!DOCTYPE svg PUBLIC "-//W3C//DTD SVG 1.1//EN" "http://www.w3.org/Graphics/SVG/1.1/DTD/svg11.dtd"><svg t="1561515894038" class="icon" viewBox="0 0 1024 1024" version="1.1" xmlns="http://www.w3.org/2000/svg" p-id="6731" xmlns:xlink="http://www.w3.org/1999/xlink" width="128" height="128"><defs><style type="text/css"></style></defs><path d="M142.705295 510.465534l-24.551449 0q-8.183816 0-14.321678-0.511489t-14.321678-0.511489l-25.574426 0 0-429.65035q0-32.735265 23.016983-55.752248t55.752248-23.016983l742.681319 0q16.367632 0 31.200799 6.137862t25.574426 16.879121 16.879121 25.062937 6.137862 30.689311l0 429.65035-23.528472 0q-9.206793 0-15.856144 0.511489t-14.833167 0.511489l-25.574426 0-742.681319 0zM973.362637 579.004995q17.390609 0 28.643357 6.137862t11.252747 20.45954-9.718282 24.551449-30.177822 10.22977l-921.702298 0q-20.45954 0-30.177822-9.718282t-9.718282-20.971029q0-14.321678 10.741259-22.505495t29.154845-8.183816l921.702298 0zM451.644356 705.854146l128.895105 0 0 256.767233q0 29.666334-20.45954 45.522478t-46.033966 15.856144q-27.62038 0-45.010989-18.925075t-17.390609-45.522478l0-22.505495 0-231.192807z" p-id="6732"></path></svg>

<svg class="icon" viewBox="0 0 1024 1024" xmlns="http://www.w3.org/2000/svg" width="128" height="128"><defs><style/></defs><path d="M142.705 510.466h-24.551q-8.184 0-14.322-.512t-14.322-.511H63.936V79.793q0-32.736 23.017-55.753t55.752-23.017h742.682q16.367 0 31.2 6.138t25.575 16.879 16.879 25.063 6.138 30.69v429.65H941.65q-9.206 0-15.856.511t-14.833.512H142.705zm830.658 68.539q17.39 0 28.643 6.138t11.253 20.46-9.719 24.55-30.177 10.23H51.66q-20.46 0-30.177-9.718t-9.719-20.97q0-14.322 10.741-22.506t29.155-8.184h921.703zm-521.719 126.85H580.54V962.62q0 29.667-20.46 45.523T514.047 1024q-27.62 0-45.011-18.925t-17.39-45.523V705.854z"/></svg>
